X: 1
T:East Dene
S:via PR
M:4/4
L:1/4
K:Bb
"Bb"D/2F/2F/2\
P:3
B/2 B/2A/2B/2c/2|dB B/2c/2B/2A/2|"Eb"G/2A/2
P:3
B/2=B/2 \
P:3
c/2d/2c/2_B/2|"C7"A/2B/2G/2A/2 "F7"F/2G/2F/2E/2|"Bb"D/2F/2F/2
P:3
B/2 B/2A/2B/2c/2|dB B/2c/2B/2A/2|"Eb"G/2A/2B/2G/2 "F7"A/2B/2c/2A/2|"Bb"
P:3
Bd B:|\
P:3
^c|\
P:4
"Dm"d/2^c/2=c/2=B/2 \
P:4
"Gm"_B/2A/2G/2F/2|"Eb"G/2F/2G/2B/2 "Bb"F2|"Eb"
P:3
E/2F/2G/2E/2 "Bb"D/2E/2F/2D/2|"C7"C2 -"F7"C/2\
P:3
B/2c/2\
P:3
^c/2|"Dm"d/2^c/2=c/2=B/2 "Gm"_B/2A/2G/2F/2|"Eb"G/2F/2G/2B/2 "Bb"F2|\
"Eb"G/2A/2B/2G/2 "F7"A/2B/2c/2A/2|"Bb"Bd B"A7"
P:3
^c|"Dm"d/2^c/2=c/2=B/2 "Gm"_B/2A/2G/2F/2|"Eb"G/2F/2G/2B/2 "Bb"F2|\
